src/assets/img/icons/duotone-icons/Communication/Clipboard-list.svg

<?xml version="1.0" encoding="UTF-8"?>
<svg width="24px" height="24px" viewBox="0 0 24 24" version="1.1" xmlns="http://www.w3.org/2000/svg" xmlns:xlink="http://www.w3.org/1999/xlink">
    <!-- Generator: Sketch 52.2 (67145) - http://www.bohemiancoding.com/sketch -->
    <title>Stockholm-icons / Communication / Clipboard-list</title>
    <desc>Created with Sketch.</desc>
    <g id="Stockholm-icons-/-Communication-/-Clipboard-list" stroke="none" stroke-width="1" fill="none" fill-rule="evenodd">
        <rect id="bound" x="0" y="0" width="24" height="24"></rect>
        <path d="M8,3 L8,3.5 C8,4.32842712 8.67157288,5 9.5,5 L14.5,5 C15.3284271,5 16,4.32842712 16,3.5 L16,3 L18,3 C19.1045695,3 20,3.8954305 20,5 L20,21 C20,22.1045695 19.1045695,23 18,23 L6,23 C4.8954305,23 4,22.1045695 4,21 L4,5 C4,3.8954305 4.8954305,3 6,3 L8,3 Z" id="Combined-Shape" fill="#335EEA" opacity="0.3"></path>
        <path d="M11,2 C11,1.44771525 11.4477153,1 12,1 C12.5522847,1 13,1.44771525 13,2 L14.5,2 C14.7761424,2 15,2.22385763 15,2.5 L15,3.5 C15,3.77614237 14.7761424,4 14.5,4 L9.5,4 C9.22385763,4 9,3.77614237 9,3.5 L9,2.5 C9,2.22385763 9.22385763,2 9.5,2 L11,2 Z" id="Combined-Shape" fill="#335EEA"></path>
        <rect id="Rectangle-152" fill="#335EEA" opacity="0.3" x="10" y="9" width="7" height="2" rx="1"></rect>
        <rect id="Rectangle-152-Copy-2" fill="#335EEA" opacity="0.3" x="7" y="9" width="2" height="2" rx="1"></rect>
        <rect id="Rectangle-152-Copy-3" fill="#335EEA" opacity="0.3" x="7" y="13" width="2" height="2" rx="1"></rect>
        <rect id="Rectangle-152-Copy" fill="#335EEA" opacity="0.3" x="10" y="13" width="7" height="2" rx="1"></rect>
        <rect id="Rectangle-152-Copy-5" fill="#335EEA" opacity="0.3" x="7" y="17" width="2" height="2" rx="1"></rect>
        <rect id="Rectangle-152-Copy-4" fill="#335EEA" opacity="0.3" x="10" y="17" width="7" height="2" rx="1"></rect>
    </g>
</svg>

<svg width="24" height="24" viewBox="0 0 24 24" xmlns="http://www.w3.org/2000/svg"><g fill="none" fill-rule="evenodd"><path d="M0 0h24v24H0z"/><path d="M8 3v.5A1.5 1.5 0 009.5 5h5A1.5 1.5 0 0016 3.5V3h2a2 2 0 012 2v16a2 2 0 01-2 2H6a2 2 0 01-2-2V5a2 2 0 012-2h2z" fill="#335EEA" opacity=".3"/><path d="M11 2a1 1 0 012 0h1.5a.5.5 0 01.5.5v1a.5.5 0 01-.5.5h-5a.5.5 0 01-.5-.5v-1a.5.5 0 01.5-.5H11z" fill="#335EEA"/><rect fill="#335EEA" opacity=".3" x="10" y="9" width="7" height="2" rx="1"/><rect fill="#335EEA" opacity=".3" x="7" y="9" width="2" height="2" rx="1"/><rect fill="#335EEA" opacity=".3" x="7" y="13" width="2" height="2" rx="1"/><rect fill="#335EEA" opacity=".3" x="10" y="13" width="7" height="2" rx="1"/><rect fill="#335EEA" opacity=".3" x="7" y="17" width="2" height="2" rx="1"/><rect fill="#335EEA" opacity=".3" x="10" y="17" width="7" height="2" rx="1"/></g></svg>
